**kern	**silbe	**kern	**silbe	**harmony	**phrase	**leadinstrument	**rhyme	**timestamp	**harte
*ICvox	*	*ICvox	*	*M4/4	*	*	*	*	*M4/4
*VRlead	*	*VRharmonize*VRbacking*VRresponse	*	*	*	*	*	*	*
*Hstimme	*	*Nstimme	*	*	*	*	*	*	*
*a:	*	*a:	*	*a:	*a:	*a:	*	*a:	*a:
*M4/4	*	*M4/4	*	*	*	*	*	*	*
*clefG2	*	*clefG2	*	*	*	*	*	*	*
r;	.	r;	.	1r;	.	r	.	0	N.C.
=1	=1	=1	=1	=1	=1	=1	=1	=1	=1
*>Letter>A	*>Letter>A	*>Letter>A	*>Letter>A	*>Letter>A	*>Letter>A	*>Letter>A	*>Letter>A	*>Letter>A	*>Letter>A
*>Label>Intro	*>Label>Intro	*>Label>Intro	*>Label>Intro	*>Label>Intro	*>Label>Intro	*>Label>Intro	*>Label>Intro	*>Label>Intro	*>Label>Intro
1r	.	1r	.	2Am	newline	bass	.	1.23	A:min/4
.	.	.	.	2Am	.	bass	.	2.127	A:min
=2	=2	=2	=2	=2	=2	=2	=2	=2	=2
1r	.	1r	.	2GM	.	bass	.	3.024	G:maj
.	.	.	.	2Am	.	bass	.	3.921	A:min
=3	=3	=3	=3	=3	=3	=3	=3	=3	=3
1r	.	1r	.	2Am	.	bass	.	4.818	A:min/4
.	.	.	.	2Am	.	bass	.	5.715	A:min
=4	=4	=4	=4	=4	=4	=4	=4	=4	=4
1r	.	1r	.	2GM	.	bass	.	6.613	G:maj
.	.	.	.	2Am	.	bass	.	7.51	A:min
=5	=5	=5	=5	=5	=5	=5	=5	=5	=5
1r	.	1r	.	2Am	newline	bass	.	8.407	A:min/4
.	.	.	.	2Am	.	bass	.	9.313	A:min
=6	=6	=6	=6	=6	=6	=6	=6	=6	=6
1r	.	1r	.	2GM	.	bass	.	10.22	G:maj
.	.	.	.	2Am	.	bass	.	11.126	A:min
=7	=7	=7	=7	=7	=7	=7	=7	=7	=7
1r	.	1r	.	2Am	.	bass	.	12.033	A:min/4
.	.	.	.	2Am	.	bass	.	12.939	A:min
=8	=8	=8	=8	=8	=8	=8	=8	=8	=8
2.r	.	1r	.	2GM	.	bass	.	13.846	G:maj
.	.	.	.	2Am	.	bass	.	14.752	A:min
8A	She's	.	.	.	.	.	.	.	.
8c	a	.	.	.	.	.	.	.	.
=9	=9	=9	=9	=9	=9	=9	=9	=9	=9
*>Letter>A	*>Letter>A	*>Letter>A	*>Letter>A	*>Letter>A	*>Letter>A	*>Letter>A	*>Letter>A	*>Letter>A	*>Letter>A
*>Label>Verse	*>Label>Verse	*>Label>Verse	*>Label>Verse	*>Label>Verse	*>Label>Verse	*>Label>Verse	*>Label>Verse	*>Label>Verse	*>Label>Verse
8e	ve-	1r	.	2Am	newline	voice	.	15.659	A:min/4
8e	-ry	.	.	.	.	.	.	.	.
8d	kink-	.	.	.	.	.	.	.	.
8c	-y	.	.	.	.	.	.	.	.
[2c	girl	.	.	2Am	.	voice	.	16.573	A:min
=10	=10	=10	=10	=10	=10	=10	=10	=10	=10
8c]	_	1r	.	2GM	.	voice	.	17.487	G:maj
8r	.	.	.	.	.	.	.	.	.
4r	.	.	.	.	.	.	.	.	.
8r	.	.	.	2Am	.	voice	.	18.401	A:min
8A	The	.	.	.	.	.	.	.	.
8A	kind	.	.	.	.	.	.	.	.
8c	you	.	.	.	.	.	.	.	.
=11	=11	=11	=11	=11	=11	=11	=11	=11	=11
8e	don't	1r	.	2Am	.	voice	.	19.315	A:min/4
8f#	take	.	.	.	.	.	.	.	.
8e	home	.	.	.	.	.	.	.	.
8c	to	.	.	.	.	.	.	.	.
8c	mo-	.	.	2Am	.	voice	.	20.228	A:min
[4.e	-ther	.	.	.	.	.	.	.	.
=12	=12	=12	=12	=12	=12	=12	=12	=12	=12
8e]	_	1r	.	2GM	.	voice	.	21.142	G:maj
8r	.	.	.	.	.	.	.	.	.
4r	.	.	.	.	.	.	.	.	.
4r	.	.	.	2Am	.	voice	.	22.056	A:min
8e	She	.	.	.	.	.	.	.	.
8g	will	.	.	.	.	.	.	.	.
=13	=13	=13	=13	=13	=13	=13	=13	=13	=13
8a	ne-	1r	.	2Am	newline	voice	.	22.97	A:min/4
8a	-ver	.	.	.	.	.	.	.	.
8e	let	.	.	.	.	.	.	.	.
8d	your	.	.	.	.	.	.	.	.
8e	spi-	.	.	2Am	.	voice	.	23.892	A:min
8d	-rits	.	.	.	.	.	.	.	.
8d	down	.	.	.	.	.	.	.	.
[8c	_	.	.	.	.	.	.	.	.
=14	=14	=14	=14	=14	=14	=14	=14	=14	=14
2c]	_	1r	.	2GM	.	voice	.	24.814	G:maj
4r	.	.	.	2Am	.	voice	.	25.736	A:min
8A	once	.	.	.	.	.	.	.	.
8G	you	.	.	.	.	.	.	.	.
=15	=15	=15	=15	=15	=15	=15	=15	=15	=15
16A	get	1r	.	2Am	.	voice	.	26.658	A:min/4
8G	her	.	.	.	.	.	.	.	.
8.A	off	.	.	.	.	.	.	.	.
8G	the	.	.	.	.	.	.	.	.
4d	street	.	.	2Am	.	voice	.	27.58	A:min
4r	.	.	.	.	.	.	.	.	.
=16	=16	=16	=16	=16	=16	=16	=16	=16	=16
2r	.	1r	.	2GM	.	voice	.	28.503	G:maj
8r	.	.	.	2Am	.	voice	.	29.425	A:min
8A	She	.	.	.	.	.	.	.	.
8A	likes	.	.	.	.	.	.	.	.
8c	the	.	.	.	.	.	.	.	.
=17	=17	=17	=17	=17	=17	=17	=17	=17	=17
4e	boys	1r	.	2Am	newline	voice	.	30.347	A:min/4
8d	in	.	.	.	.	.	.	.	.
8c	the	.	.	.	.	.	.	.	.
16d	band.	.	.	2Am	.	voice	.	31.261	A:min
[8.c	_	.	.	.	.	.	.	.	.
4c]	_	.	.	.	.	.	.	.	.
=18	=18	=18	=18	=18	=18	=18	=18	=18	=18
2r	.	1r	.	2GM	.	voice	.	32.176	G:maj
8r	.	.	.	2Am	.	voice	.	33.091	A:min
8A	She	.	.	.	.	.	.	.	.
8A	says	.	.	.	.	.	.	.	.
8c	that	.	.	.	.	.	.	.	.
=19	=19	=19	=19	=19	=19	=19	=19	=19	=19
8e	I'm	1r	.	2Am	.	voice	.	34.006	A:min/4
8f#	their	.	.	.	.	.	.	.	.
8e	all	.	.	.	.	.	.	.	.
8c	time	.	.	.	.	.	.	.	.
8c	favor-	.	.	2Am	.	voice	.	34.921	A:min
[4.e	-ite.	.	.	.	.	.	.	.	.
=20	=20	=20	=20	=20	=20	=20	=20	=20	=20
8e]	_	1r	.	2GM	.	voice	.	35.835	G:maj
8r	.	.	.	.	.	.	.	.	.
4r	.	.	.	.	.	.	.	.	.
4r	.	.	.	2Am	.	voice	.	36.75	A:min
8e	When	.	.	.	.	.	.	.	.
8g	I	.	.	.	.	.	.	.	.
=21	=21	=21	=21	=21	=21	=21	=21	=21	=21
8a	make	1r	.	2Am	newline	voice	.	37.665	A:min/4
8a	my	.	.	.	.	.	.	.	.
8e	move	.	.	.	.	.	.	.	.
8d	to	.	.	.	.	.	.	.	.
8g	her	.	.	2Am	.	voice	.	38.576	A:min
8e	room	.	.	.	.	.	.	.	.
8d	it's	.	.	.	.	.	.	.	.
8c	the	.	.	.	.	.	.	.	.
=22	=22	=22	=22	=22	=22	=22	=22	=22	=22
4d	right	1r	.	2GM	.	voice	.	39.487	G:maj
2c	time	.	.	.	.	.	.	.	.
.	.	.	.	2Am	.	voice	.	40.397	A:min
8r	.	.	.	.	.	.	.	.	.
8G	She's	.	.	.	.	.	.	.	.
=23	=23	=23	=23	=23	=23	=23	=23	=23	=23
16A	ne-	1r	.	2Am	.	voice	.	41.308	A:min/4
8G	-ver	.	.	.	.	.	.	.	.
8A	hard	.	.	.	.	.	.	.	.
8G	to	.	.	.	.	.	.	.	.
[16d	please	.	.	.	.	.	.	.	.
2d]	_	.	.	2Am	.	voice	.	42.219	A:min
=24	=24	=24	=24	=24	=24	=24	=24	=24	=24
2r	.	1r	.	2GM	.	voice	.	43.13	G:maj
4.r	.	.	.	2Am	.	voice	.	44.041	A:min
8G	That	.	.	.	.	.	.	.	.
=25	=25	=25	=25	=25	=25	=25	=25	=25	=25
*>Letter>B	*>Letter>B	*>Letter>B	*>Letter>B	*>Letter>B	*>Letter>B	*>Letter>B	*>Letter>B	*>Letter>B	*>Letter>B
*>Label>Chorus	*>Label>Chorus	*>Label>Chorus	*>Label>Chorus	*>Label>Chorus	*>Label>Chorus	*>Label>Chorus	*>Label>Chorus	*>Label>Chorus	*>Label>Chorus
8A	girl	1r	.	2Am	newline	voice	.	44.952	A:min/4
8G	is	.	.	.	.	.	.	.	.
16A	pre-	.	.	.	.	.	.	.	.
8G	-tty	.	.	.	.	.	.	.	.
8.d	wild	.	.	.	.	.	.	.	.
.	.	.	.	2Am	.	voice	.	45.871	A:min
4.c	now	.	.	.	.	.	A	.	.
=26	=26	=26	=26	=26	=26	=26	=26	=26	=26
2r	.	1r	.	2GM	.	voice	.	46.79	G:maj/b7
4.r	.	.	.	2Am	.	voice	.	47.709	A:min
8G	The	.	.	.	.	.	.	.	.
=27	=27	=27	=27	=27	=27	=27	=27	=27	=27
8A	kin-	1r	.	2Am	.	voice	.	48.629	A:min/4
16G	-da	.	.	.	.	.	.	.	.
8A	girl	.	.	.	.	.	.	.	.
16G	you	.	.	.	.	.	.	.	.
16d	read	.	.	.	.	.	.	.	.
8.d	a-	.	.	.	.	.	.	.	.
.	.	.	.	2Am	.	voice	.	49.548	A:min
4.c	-bout	.	.	.	.	.	A	.	.
=28	=28	=28	=28	=28	=28	=28	=28	=28	=28
2r	.	1r	.	2GM	.	voice	.	50.467	G:maj/b7
4.r	.	.	.	2Am	.	voice	.	51.386	A:min
8G	That	.	.	.	.	.	.	.	.
=29	=29	=29	=29	=29	=29	=29	=29	=29	=29
8A	girl	1r	.	2Am	newline	voice	.	52.305	A:min/4
8G	is	.	.	.	.	.	.	.	.
16A	pre-	.	.	.	.	.	.	.	.
8G	-tty	.	.	.	.	.	.	.	.
8.d	kink-	.	.	.	.	.	.	.	.
.	.	.	.	2Am	.	voice	.	53.22	A:min
4.c	-y	.	.	.	.	.	.	.	.
=30	=30	=30	=30	=30	=30	=30	=30	=30	=30
2r	.	1r	.	2GM	.	voice	.	54.134	G:maj/b7
4.r	.	.	.	2Am	.	voice	.	55.049	A:min
8G	I'd	.	.	.	.	.	.	.	.
=31	=31	=31	=31	=31	=31	=31	=31	=31	=31
8A	real-	1r	.	2Am	.	voice	.	55.963	A:min/4
16G	-ly	.	.	.	.	.	.	.	.
8A	love	.	.	.	.	.	.	.	.
16G	to	.	.	.	.	.	.	.	.
4d	taste	.	.	.	.	.	.	.	.
.	.	.	.	2Am	.	voice	.	56.878	A:min
4.c	her	.	.	.	.	.	.	.	.
=32	=32	=32	=32	=32	=32	=32	=32	=32	=32
1r	.	1r	.	2GM	.	voice	.	57.792	G:maj/b7
.	.	.	.	2Am	.	voice	.	58.707	A:min
=33	=33	=33	=33	=33	=33	=33	=33	=33	=33
*>Letter>C	*>Letter>C	*>Letter>C	*>Letter>C	*>Letter>C	*>Letter>C	*>Letter>C	*>Letter>C	*>Letter>C	*>Letter>C
*>Label>Bridge	*>Label>Bridge	*>Label>Bridge	*>Label>Bridge	*>Label>Bridge	*>Label>Bridge	*>Label>Bridge	*>Label>Bridge	*>Label>Bridge	*>Label>Bridge
4a	She's	1r	.	4FM	newline	voice	.	59.621	F:maj
4g	al-	.	.	4GM	.	voice	.	60.078	G:maj
16e	-right	.	.	2Amm	.	voice	.	60.535	A:min7
16d	_	.	.	.	.	.	.	.	.
8c	_	.	.	.	.	.	.	.	.
4r	.	.	.	.	.	.	.	.	.
=34	=34	=34	=34	=34	=34	=34	=34	=34	=34
4a	She's	1r	.	4FM	.	voice	.	61.448	F:maj
8.g	al-	.	.	4GM	.	voice	.	61.905	G:maj
[16a	-right	.	.	.	.	.	.	.	.
4a]	_	.	.	2Amm	.	voice	.	62.362	A:min7
8r	.	.	.	.	.	.	.	.	.
8a	That	.	.	.	.	.	.	.	.
=35	=35	=35	=35	=35	=35	=35	=35	=35	=35
8r	.	1r	.	4FM	.	voice	.	63.275	F:maj
8cc	girl's	.	.	.	.	.	.	.	.
8a	_	.	.	4GM	.	voice	.	63.732	G:maj
8a	all	.	.	.	.	.	.	.	.
8g	_	.	.	2Amm	.	voice	.	64.189	A:min7
8g	right	.	.	.	.	.	.	.	.
8e	_	.	.	.	.	.	.	.	.
[8d	_	.	.	.	.	.	.	.	.
=36	=36	=36	=36	=36	=36	=36	=36	=36	=36
8d]	_	1r	.	1Am	newline	synthesizer	.	65.102	A:min
4d	with	.	.	.	.	.	.	.	.
[8c	me	.	.	.	.	.	.	.	.
2c_	_	.	.	.	.	.	.	.	.
=37	=37	=37	=37	=37	=37	=37	=37	=37	=37
2c]	_	1r	.	1Am	.	synthesizer	.	66.83	A:min
4.r	.	.	.	.	.	.	.	.	.
[8d	Yeah	.	.	.	.	.	.	.	.
=38	=38	=38	=38	=38	=38	=38	=38	=38	=38
8d]	_	1r	.	1Am	.	synthesizer	.	68.558	A:min/b6
8c	_	.	.	.	.	.	.	.	.
2A	_	.	.	.	.	.	.	.	.
4r	.	.	.	.	.	.	.	.	.
=39	=39	=39	=39	=39	=39	=39	=39	=39	=39
8r	.	1r	.	1AM	.	synthesizer	.	70.286	A:maj/5
8g	Heh	.	.	.	.	.	.	.	.
8g	heh	.	.	.	.	.	.	.	.
8r	.	.	.	.	.	.	.	.	.
8a	heh	.	.	.	.	.	.	.	.
8r	.	.	.	.	.	.	.	.	.
4cc	hey!	.	.	.	.	.	.	.	.
=40	=40	=40	=40	=40	=40	=40	=40	=40	=40
*>Letter>A	*>Letter>A	*>Letter>A	*>Letter>A	*>Letter>A	*>Letter>A	*>Letter>A	*>Letter>A	*>Letter>A	*>Letter>A
*>Label>Interlude	*>Label>Interlude	*>Label>Interlude	*>Label>Interlude	*>Label>Interlude	*>Label>Interlude	*>Label>Interlude	*>Label>Interlude	*>Label>Interlude	*>Label>Interlude
1r	.	1r	.	2Am	newline	bass	.	72.446	A:min/4
.	.	.	.	2Am	.	bass	.	73.364	A:min
=41	=41	=41	=41	=41	=41	=41	=41	=41	=41
2.r	.	1r	.	2GM	.	bass	.	74.281	G:maj
.	.	.	.	2Am	.	bass	.	75.198	A:min
8g	She's	.	.	.	.	.	.	.	.
8g	a	.	.	.	.	.	.	.	.
=42	=42	=42	=42	=42	=42	=42	=42	=42	=42
8g	sup-	1r	.	2Am	.	bass	.	76.115	A:min/4
8g	-er	.	.	.	.	.	.	.	.
8a	freak	.	.	.	.	.	.	.	.
8r	.	.	.	.	.	.	.	.	.
8r	.	.	.	2Am	.	bass	.	77.033	A:min
8g	sup-	.	.	.	.	.	.	.	.
8g	-er	.	.	.	.	.	.	.	.
8a	freak	.	.	.	.	.	.	.	.
=43	=43	=43	=43	=43	=43	=43	=43	=43	=43
8r	.	1r	.	2GM	.	bass	.	77.95	G:maj
8d	She's	.	.	.	.	.	.	.	.
8d	sup-	.	.	.	.	.	.	.	.
8c	-er	.	.	.	.	.	.	.	.
8e	freak-	.	.	2Am	.	bass	.	78.867	A:min
4.c	-y	.	.	.	.	.	.	.	.
=44	=44	=44	=44	=44	=44	=44	=44	=44	=44
4A	yaow	1r	.	2Am	newline	bass	.	79.784	A:min/4
4r	.	.	.	.	.	.	.	.	.
2r	.	.	.	2Am	.	bass	.	80.705	A:min
=45	=45	=45	=45	=45	=45	=45	=45	=45	=45
1r	.	1r	.	2GM	.	bass	.	81.625	G:maj
.	.	.	.	2Am	.	bass	.	82.545	A:min
=46	=46	=46	=46	=46	=46	=46	=46	=46	=46
8g	sup-	1r	.	2Am	.	bass	.	83.465	A:min/4
8g	-er	.	.	.	.	.	.	.	.
8a	freak	.	.	.	.	.	.	.	.
8r	.	.	.	.	.	.	.	.	.
8r	.	.	.	2Am	.	bass	.	84.385	A:min
8g	sup-	.	.	.	.	.	.	.	.
8g	-er	.	.	.	.	.	.	.	.
8a	freak	.	.	.	.	.	.	.	.
=47	=47	=47	=47	=47	=47	=47	=47	=47	=47
2.r	.	1r	.	2GM	.	bass	.	85.305	G:maj
.	.	.	.	2Am	.	bass	.	86.225	A:min
8A	She's	.	.	.	.	.	.	.	.
8c	a	.	.	.	.	.	.	.	.
=48	=48	=48	=48	=48	=48	=48	=48	=48	=48
*>Letter>A	*>Letter>A	*>Letter>A	*>Letter>A	*>Letter>A	*>Letter>A	*>Letter>A	*>Letter>A	*>Letter>A	*>Letter>A
*>Label>Verse	*>Label>Verse	*>Label>Verse	*>Label>Verse	*>Label>Verse	*>Label>Verse	*>Label>Verse	*>Label>Verse	*>Label>Verse	*>Label>Verse
8e	ve-	1r	.	2Am	newline	voice	.	87.145	A:min/4
8e	-ry	.	.	.	.	.	.	.	.
8d	spe-	.	.	.	.	.	.	.	.
8c	-cial	.	.	.	.	.	.	.	.
[2c	girl	.	.	2Am	.	voice	.	88.059	A:min
=49	=49	=49	=49	=49	=49	=49	=49	=49	=49
4c]	_	1r	.	2GM	.	voice	.	88.972	G:maj
4r	.	.	.	.	.	.	.	.	.
4r	.	.	.	2Am	.	voice	.	89.886	A:min
8A	From	.	.	.	.	.	.	.	.
8c	her	.	.	.	.	.	.	.	.
=50	=50	=50	=50	=50	=50	=50	=50	=50	=50
8e	head	1r	.	2Am	.	voice	.	90.799	A:min/4
8f#	down	.	.	.	.	.	.	.	.
8e	to	.	.	.	.	.	.	.	.
8c	her	.	.	.	.	.	.	.	.
8c	toe-	.	.	2Am	.	voice	.	91.712	A:min
[4.e	-nails	.	.	.	.	.	.	.	.
=51	=51	=51	=51	=51	=51	=51	=51	=51	=51
4e]	_	1r	.	2GM	.	voice	.	92.626	G:maj
4r	.	.	.	.	.	.	.	.	.
4r	.	.	.	2Am	.	voice	.	93.539	A:min
8e	Yeah	.	.	.	.	.	.	.	.
8g	she'll	.	.	.	.	.	.	.	.
=52	=52	=52	=52	=52	=52	=52	=52	=52	=52
8a	wait	1r	.	2Am	newline	voice	.	94.453	A:min/4
8a	for	.	.	.	.	.	.	.	.
8e	me	.	.	.	.	.	.	.	.
8d	at	.	.	.	.	.	.	.	.
8e	back-	.	.	2Am	.	voice	.	95.368	A:min
8d	-stage	.	.	.	.	.	.	.	.
8d	with	.	.	.	.	.	.	.	.
8c	her	.	.	.	.	.	.	.	.
=53	=53	=53	=53	=53	=53	=53	=53	=53	=53
4d	girl-	1r	.	2GM	.	voice	.	96.283	G:maj
2c	-friends	.	.	.	.	.	.	.	.
.	.	.	.	2Am	.	voice	.	97.199	A:min
4r	.	.	.	.	.	.	.	.	.
=54	=54	=54	=54	=54	=54	=54	=54	=54	=54
16A	in	1r	.	2Am	.	voice	.	98.114	A:min/4
8G	a	.	.	.	.	.	.	.	.
16A	lim-	.	.	.	.	.	.	.	.
8G	-ou-	.	.	.	.	.	.	.	.
4.d	-sine	.	.	.	.	.	B	.	.
.	.	.	.	2Am	.	voice	.	99.029	A:min
4r	.	.	.	.	.	.	.	.	.
=55	=55	=55	=55	=55	=55	=55	=55	=55	=55
2r	.	1r	.	2GM	.	voice	.	99.945	G:maj
8r	.	.	.	2Am	.	voice	.	100.86	A:min
8A	Three's	.	.	.	.	.	.	.	.
8A	not	.	.	.	.	.	.	.	.
8c	a	.	.	.	.	.	.	.	.
=56	=56	=56	=56	=56	=56	=56	=56	=56	=56
4e	crowd	1r	.	2Am	newline	voice	.	101.776	A:min/4
8f	to	.	.	.	.	.	.	.	.
8.e	her	.	.	.	.	.	.	.	.
.	.	.	.	2Am	.	voice	.	102.693	A:min
8.d	she	.	.	.	.	.	.	.	.
[4e	says	.	.	.	.	.	.	.	.
=57	=57	=57	=57	=57	=57	=57	=57	=57	=57
4e]	_	1r	.	2GM	.	voice	.	103.611	G:maj
4r	.	.	.	.	.	.	.	.	.
8r	.	.	.	2Am	.	voice	.	104.528	A:min
8A	Room	.	.	.	.	.	.	.	.
8A	se-	.	.	.	.	.	.	.	.
8c	-ven	.	.	.	.	.	.	.	.
=58	=58	=58	=58	=58	=58	=58	=58	=58	=58
8e	four-	1r	.	2Am	.	voice	.	105.446	A:min/4
8f	-teen	.	.	.	.	.	B	.	.
8e	I'll	.	.	.	.	.	.	.	.
8c	be	.	.	.	.	.	.	.	.
8c	wai-	.	.	2Am	.	voice	.	106.364	A:min
4.e	-ting	.	.	.	.	.	B	.	.
=59	=59	=59	=59	=59	=59	=59	=59	=59	=59
2r	.	1r	.	2GM	.	voice	.	107.281	G:maj
4r	.	.	.	2Am	.	voice	.	108.199	A:min
8e	When	.	.	.	.	.	.	.	.
8g	I	.	.	.	.	.	.	.	.
=60	=60	=60	=60	=60	=60	=60	=60	=60	=60
8a	get	1r	.	2Am	newline	voice	.	109.117	A:min/4
8a	there	.	.	.	.	.	.	.	.
8e	she's	.	.	.	.	.	.	.	.
8f	got	.	.	.	.	.	.	.	.
8g	in-	.	.	2Am	.	voice	.	110.031	A:min
8e	-cense	.	.	.	.	.	.	.	.
8d	wine	.	.	.	.	.	.	.	.
8c	and	.	.	.	.	.	.	.	.
=61	=61	=61	=61	=61	=61	=61	=61	=61	=61
4d	can-	1r	.	2GM	.	voice	.	110.945	G:maj
2c	-dles	.	.	.	.	.	.	.	.
.	.	.	.	2Am	.	voice	.	111.86	A:min
8r	.	.	.	.	.	.	.	.	.
8G	It's	.	.	.	.	.	.	.	.
=62	=62	=62	=62	=62	=62	=62	=62	=62	=62
16A	such	1r	.	2Am	.	voice	.	112.774	A:min/4
8.G	a	.	.	.	.	.	.	.	.
8A	frea-	.	.	.	.	.	.	.	.
8G	-ky	.	.	.	.	.	.	.	.
2d	scene	.	.	2Am	.	voice	B	113.688	A:min
=63	=63	=63	=63	=63	=63	=63	=63	=63	=63
2r	.	1r	.	2GM	.	voice	.	114.603	G:maj
4.r	.	.	.	2Am	.	voice	.	115.517	A:min
8G	That	.	.	.	.	.	.	.	.
=64	=64	=64	=64	=64	=64	=64	=64	=64	=64
*>Letter>B	*>Letter>B	*>Letter>B	*>Letter>B	*>Letter>B	*>Letter>B	*>Letter>B	*>Letter>B	*>Letter>B	*>Letter>B
*>Label>Chorus	*>Label>Chorus	*>Label>Chorus	*>Label>Chorus	*>Label>Chorus	*>Label>Chorus	*>Label>Chorus	*>Label>Chorus	*>Label>Chorus	*>Label>Chorus
8A	girl	1r	.	2Am	newline	voice	.	116.431	A:min/4
8G	is	.	.	.	.	.	.	.	.
16A	pre-	.	.	.	.	.	.	.	.
8G	-tty	.	.	.	.	.	.	.	.
8.d	kink-	.	.	.	.	.	.	.	.
.	.	.	.	2Am	.	voice	.	117.348	A:min
4.c	-y	.	.	.	.	.	b	.	.
=65	=65	=65	=65	=65	=65	=65	=65	=65	=65
2r	.	1r	.	2GM	.	voice	.	118.265	G:maj/b7
4.r	.	.	.	2Am	.	voice	.	119.182	A:min
8G	The	.	.	.	.	.	.	.	.
=66	=66	=66	=66	=66	=66	=66	=66	=66	=66
16A	kin-	1r	.	2Am	.	voice	.	120.099	A:min/4
8G	-da	.	.	.	.	.	.	.	.
8A	girl	.	.	.	.	.	.	.	.
16G	you	.	.	.	.	.	.	.	.
16d	read	.	.	.	.	.	.	.	.
8.d	a-	.	.	.	.	.	.	.	.
.	.	.	.	2Am	.	voice	.	121.016	A:min
4.c	-bout	.	.	.	.	.	A	.	.
=67	=67	=67	=67	=67	=67	=67	=67	=67	=67
2r	.	1r	.	2GM	.	voice	.	121.933	G:maj/b7
4.r	.	.	.	2Am	.	voice	.	122.85	A:min
8G	That	.	.	.	.	.	.	.	.
=68	=68	=68	=68	=68	=68	=68	=68	=68	=68
8A	girl	1r	.	2Am	newline	voice	.	123.767	A:min/4
8G	is	.	.	.	.	.	.	.	.
16A	pre-	.	.	.	.	.	.	.	.
8G	-tty	.	.	.	.	.	.	.	.
8.d	wild	.	.	.	.	.	.	.	.
.	.	.	.	2Am	.	voice	.	124.676	A:min
4.c	now	.	.	.	.	.	A	.	.
=69	=69	=69	=69	=69	=69	=69	=69	=69	=69
2r	.	1r	.	2GM	.	voice	.	125.586	G:maj/b7
4.r	.	.	.	2Am	.	voice	.	126.496	A:min
8G	I'd	.	.	.	.	.	.	.	.
=70	=70	=70	=70	=70	=70	=70	=70	=70	=70
8A	real-	1r	.	2Am	.	voice	.	127.406	A:min/4
16G	-ly	.	.	.	.	.	.	.	.
8A	like	.	.	.	.	.	.	.	.
16G	to	.	.	.	.	.	.	.	.
4d	taste	.	.	.	.	.	.	.	.
.	.	.	.	2Am	.	voice	.	128.315	A:min
8c	her	.	.	.	.	.	.	.	.
4r	.	.	.	.	.	.	.	.	.
=71	=71	=71	=71	=71	=71	=71	=71	=71	=71
1r	.	1r	.	2GM	.	voice	.	129.225	G:maj/b7
.	.	.	.	2Am	.	voice	.	130.135	A:min
=72	=72	=72	=72	=72	=72	=72	=72	=72	=72
*>Letter>C	*>Letter>C	*>Letter>C	*>Letter>C	*>Letter>C	*>Letter>C	*>Letter>C	*>Letter>C	*>Letter>C	*>Letter>C
*>Label>Bridge	*>Label>Bridge	*>Label>Bridge	*>Label>Bridge	*>Label>Bridge	*>Label>Bridge	*>Label>Bridge	*>Label>Bridge	*>Label>Bridge	*>Label>Bridge
4a	She's	1r	.	4FM	newline	voice	.	131.044	F:maj
4g	al-	.	.	4GM	.	voice	.	131.504	G:maj
16e	-right	.	.	2Amm	.	voice	.	131.963	A:min7
16d	_	.	.	.	.	.	.	.	.
8c	_	.	.	.	.	.	.	.	.
4r	.	.	.	.	.	.	.	.	.
=73	=73	=73	=73	=73	=73	=73	=73	=73	=73
4a	She's	1r	.	4FM	.	voice	.	132.881	F:maj
8.g	al-	.	.	4GM	.	voice	.	133.34	G:maj
8.a	-right	.	.	.	.	.	.	.	.
.	.	.	.	2Amm	.	voice	.	133.799	A:min7
8r	.	.	.	.	.	.	.	.	.
8r	.	.	.	.	.	.	.	.	.
8a	That	.	.	.	.	.	.	.	.
=74	=74	=74	=74	=74	=74	=74	=74	=74	=74
8r	.	1r	.	4FM	.	voice	.	134.717	F:maj
8cc	girl's	.	.	.	.	.	.	.	.
8a	_	.	.	4GM	.	voice	.	135.176	G:maj
8a	all	.	.	.	.	.	.	.	.
8g	_	.	.	2Amm	.	voice	.	135.635	A:min7
8g	right	.	.	.	.	.	.	.	.
8e	_	.	.	.	.	.	.	.	.
[8d	_	.	.	.	.	.	.	.	.
=75	=75	=75	=75	=75	=75	=75	=75	=75	=75
8d]	_	1r	.	1Am	newline	synthesizer	.	136.554	A:min
4d	with	.	.	.	.	.	.	.	.
[8c	me	.	.	.	.	.	.	.	.
2c_	_	.	.	.	.	.	.	.	.
=76	=76	=76	=76	=76	=76	=76	=76	=76	=76
2c]	_	1r	.	1Am	.	synthesizer	.	138.281	A:min
4.r	.	.	.	.	.	.	.	.	.
[8d	Yeah	.	.	.	.	.	.	.	.
=77	=77	=77	=77	=77	=77	=77	=77	=77	=77
8d]	_	1r	.	1Am	.	synthesizer	.	140.008	A:min/b6
8c	_	.	.	.	.	.	.	.	.
2A	_	.	.	.	.	.	.	.	.
4r	.	.	.	.	.	.	.	.	.
=78	=78	=78	=78	=78	=78	=78	=78	=78	=78
8r	.	1r	.	1AM	.	synthesizer	.	141.735	A:maj/5
8g	Heh	.	.	.	.	.	.	.	.
8g	heh	.	.	.	.	.	.	.	.
8r	.	.	.	.	.	.	.	.	.
8a	heh	.	.	.	.	.	.	.	.
8r	.	.	.	.	.	.	.	.	.
4cc	hey!	.	.	.	.	.	.	.	.
=79	=79	=79	=79	=79	=79	=79	=79	=79	=79
*>Letter>A	*>Letter>A	*>Letter>A	*>Letter>A	*>Letter>A	*>Letter>A	*>Letter>A	*>Letter>A	*>Letter>A	*>Letter>A
*>Label>Interlude	*>Label>Interlude	*>Label>Interlude	*>Label>Interlude	*>Label>Interlude	*>Label>Interlude	*>Label>Interlude	*>Label>Interlude	*>Label>Interlude	*>Label>Interlude
1r	.	1r	.	2Am	newline	bass	.	143.894	A:min/4
.	.	.	.	2Am	.	bass	.	144.813	A:min
=80	=80	=80	=80	=80	=80	=80	=80	=80	=80
2.r	.	1r	.	2GM	.	bass	.	145.733	G:maj
.	.	.	.	2Am	.	bass	.	146.652	A:min
8g	She's	.	.	.	.	.	.	.	.
8g	a	.	.	.	.	.	.	.	.
=81	=81	=81	=81	=81	=81	=81	=81	=81	=81
8g	sup-	1r	.	2Am	.	bass	.	147.572	A:min/4
8g	-er	.	.	.	.	.	.	.	.
8a	freak	.	.	.	.	.	.	.	.
8r	.	.	.	.	.	.	.	.	.
8r	.	.	.	2Am	.	bass	.	148.491	A:min
8g	sup-	.	.	.	.	.	.	.	.
8g	-er	.	.	.	.	.	.	.	.
8a	freak	.	.	.	.	.	.	.	.
=82	=82	=82	=82	=82	=82	=82	=82	=82	=82
8r	.	1r	.	2GM	.	bass	.	149.411	G:maj
8d	She's	.	.	.	.	.	.	.	.
8d	sup-	.	.	.	.	.	.	.	.
8c	-er	.	.	.	.	.	.	.	.
8e	freak-	.	.	2Am	.	bass	.	150.33	A:min
4.c	-y	.	.	.	.	.	.	.	.
=83	=83	=83	=83	=83	=83	=83	=83	=83	=83
4A	yaow	1r	.	2Am	newline	bass	.	151.25	A:min/4
4r	.	.	.	.	.	.	.	.	.
2r	.	.	.	2Am	.	bass	.	152.172	A:min
=84	=84	=84	=84	=84	=84	=84	=84	=84	=84
4.r	.	1r	.	2GM	.	bass	.	153.094	G:maj
8a	Temp-	.	.	.	.	.	.	.	.
8a	-ta-	.	.	2Am	.	bass	.	154.017	A:min
8g	-tions	.	.	.	.	.	.	.	.
4a	sing	.	.	.	.	.	.	.	.
=85	=85	=85	=85	=85	=85	=85	=85	=85	=85
1r	.	4A	Oh	2Am	.	bass	.	154.939	A:min/4
.	.	4c	_	.	.	.	.	.	.
.	.	4d	_	2Am	.	bass	.	155.862	A:min
.	.	4e	_	.	.	.	.	.	.
=86	=86	=86	=86	=86	=86	=86	=86	=86	=86
1r	.	4d	_	2GM	.	bass	.	156.784	G:maj
.	.	4c	_	.	.	.	.	.	.
.	.	4A	_	2Am	.	bass	.	157.707	A:min
.	.	4A	_	.	.	.	.	.	.
=87	=87	=87	=87	=87	=87	=87	=87	=87	=87
8g	Sup-	2A	_	2Am	newline	bass	.	158.629	A:min/4
8g	-er	.	.	.	.	.	.	.	.
8a	freak	.	.	.	.	.	.	.	.
8r	.	.	.	.	.	.	.	.	.
8r	.	2r	.	2Am	.	bass	.	159.543	A:min
8g	sup-	.	.	.	.	.	.	.	.
8g	-er	.	.	.	.	.	.	.	.
8a	freak	.	.	.	.	.	.	.	.
=88	=88	=88	=88	=88	=88	=88	=88	=88	=88
8r	.	1r	.	2GM	.	bass	.	160.456	G:maj
8g	The	.	.	.	.	.	.	.	.
8g	girl's	.	.	.	.	.	.	.	.
8g	a	.	.	.	.	.	.	.	.
8g	sup-	.	.	2Am	.	bass	.	161.37	A:min
8g	-er	.	.	.	.	.	.	.	.
8a	freak	.	.	.	.	.	.	.	.
8r	.	.	.	.	.	.	.	.	.
=89	=89	=89	=89	=89	=89	=89	=89	=89	=89
1r	.	4A	Oh	2Am	.	bass	.	162.283	A:min/4
.	.	4c	_	.	.	.	.	.	.
.	.	4d	_	2Am	.	bass	.	163.197	A:min
.	.	4e	_	.	.	.	.	.	.
=90	=90	=90	=90	=90	=90	=90	=90	=90	=90
2.r	.	4d	_	2GM	.	bass	.	164.11	G:maj
.	.	4c	_	.	.	.	.	.	.
.	.	[2A	_	2Am	.	bass	.	165.024	A:min
8A	She's	.	.	.	.	.	.	.	.
8c	a	.	.	.	.	.	.	.	.
=91	=91	=91	=91	=91	=91	=91	=91	=91	=91
*>Letter>A	*>Letter>A	*>Letter>A	*>Letter>A	*>Letter>A	*>Letter>A	*>Letter>A	*>Letter>A	*>Letter>A	*>Letter>A
*>Label>Verse	*>Label>Verse	*>Label>Verse	*>Label>Verse	*>Label>Verse	*>Label>Verse	*>Label>Verse	*>Label>Verse	*>Label>Verse	*>Label>Verse
8e	ve-	2A]	_	2Am	newline	voice	.	165.937	A:min/4
8e	-ry	.	.	.	.	.	.	.	.
8d	kink-	.	.	.	.	.	.	.	.
8c	-y	.	.	.	.	.	.	.	.
[2c	girl	2r	.	2Am	.	voice	.	166.848	A:min
=92	=92	=92	=92	=92	=92	=92	=92	=92	=92
4c]	_	1r	.	2GM	.	voice	.	167.759	G:maj
4r	.	.	.	.	.	.	.	.	.
8r	.	.	.	2Am	.	voice	.	168.67	A:min
8A	The	.	.	.	.	.	.	.	.
8A	kind	.	.	.	.	.	.	.	.
8c	you	.	.	.	.	.	.	.	.
=93	=93	=93	=93	=93	=93	=93	=93	=93	=93
8e	don't	1r	.	2Am	.	voice	.	169.581	A:min/4
8f#	take	.	.	.	.	.	.	.	.
8e	home	.	.	.	.	.	.	.	.
8c	to	.	.	.	.	.	.	.	.
8c	mo-	.	.	2Am	.	voice	.	170.492	A:min
4.e	-ther	.	.	.	.	.	.	.	.
=94	=94	=94	=94	=94	=94	=94	=94	=94	=94
8r	.	1r	.	2GM	.	voice	.	171.403	G:maj
8r	.	.	.	.	.	.	.	.	.
4r	.	.	.	.	.	.	.	.	.
8r	.	.	.	2Am	.	voice	.	172.314	A:min
8e	And	.	.	.	.	.	.	.	.
8e	she	.	.	.	.	.	.	.	.
8g	will	.	.	.	.	.	.	.	.
=95	=95	=95	=95	=95	=95	=95	=95	=95	=95
8a	ne-	1r	.	2Am	newline	voice	.	173.225	A:min/4
8a	-ver	.	.	.	.	.	.	.	.
8e	let	.	.	.	.	.	.	.	.
8d	your	.	.	.	.	.	.	.	.
8e	spi-	.	.	2Am	.	voice	.	174.147	A:min
8d	-rits	.	.	.	.	.	.	.	.
8d	down	.	.	.	.	.	.	.	.
[8c	_	.	.	.	.	.	.	.	.
=96	=96	=96	=96	=96	=96	=96	=96	=96	=96
2c]	_	1r	.	2GM	.	voice	.	175.069	G:maj
4r	.	.	.	2Am	.	voice	.	175.991	A:min
8A	once	.	.	.	.	.	.	.	.
8G	you	.	.	.	.	.	.	.	.
=97	=97	=97	=97	=97	=97	=97	=97	=97	=97
16A	get	1r	.	2Am	.	voice	.	176.913	A:min/4
8G	her	.	.	.	.	.	.	.	.
8.A	off	.	.	.	.	.	.	.	.
8G	the	.	.	.	.	.	.	.	.
4d	street	.	.	2Am	.	voice	.	177.835	A:min
4r	.	.	.	.	.	.	.	.	.
=98	=98	=98	=98	=98	=98	=98	=98	=98	=98
4.r	.	1r	.	2GM	.	voice	.	178.756	G:maj
4a	Blow	.	.	.	.	.	.	.	.
.	.	.	.	2Am	.	voice	.	179.678	A:min
8e	da-	.	.	.	.	.	.	.	.
4e	-ddy!	.	.	.	.	.	.	.	.
=99	=99	=99	=99	=99	=99	=99	=99	=99	=99
*>Letter>B	*>Letter>B	*>Letter>B	*>Letter>B	*>Letter>B	*>Letter>B	*>Letter>B	*>Letter>B	*>Letter>B	*>Letter>B
*>Label>Solo	*>Label>Solo	*>Label>Solo	*>Label>Solo	*>Label>Solo	*>Label>Solo	*>Label>Solo	*>Label>Solo	*>Label>Solo	*>Label>Solo
1r	.	1r	.	2Am	newline	saxophone	.	180.6	A:min/4
.	.	.	.	2Am	.	saxophone	.	181.515	A:min
=100	=100	=100	=100	=100	=100	=100	=100	=100	=100
1r	.	1r	.	2GM	.	saxophone	.	182.429	G:maj/b7
.	.	.	.	2Am	.	saxophone	.	183.344	A:min
=101	=101	=101	=101	=101	=101	=101	=101	=101	=101
1r	.	1r	.	2Am	.	saxophone	.	184.259	A:min/4
.	.	.	.	2Am	.	saxophone	.	185.173	A:min
=102	=102	=102	=102	=102	=102	=102	=102	=102	=102
1r	.	1r	.	2GM	.	saxophone	.	186.088	G:maj/b7
.	.	.	.	2Am	.	saxophone	.	187.003	A:min
=103	=103	=103	=103	=103	=103	=103	=103	=103	=103
*>Label>>Fadeout	*>Label>>Fadeout	*>Label>>Fadeout	*>Label>>Fadeout	*>Label>>Fadeout	*>Label>>Fadeout	*>Label>>Fadeout	*>Label>>Fadeout	*>Label>>Fadeout	*>Label>>Fadeout
1r	.	1r	.	2Am	newline	saxophone	.	187.917	A:min/4
.	.	.	.	2Am	.	saxophone	.	188.845	A:min
=104	=104	=104	=104	=104	=104	=104	=104	=104	=104
1r	.	1r	.	2GM	.	saxophone	.	189.773	G:maj/b7
.	.	.	.	2Am	.	saxophone	.	190.701	A:min
=105	=105	=105	=105	=105	=105	=105	=105	=105	=105
1r	.	1r	.	2Am	.	saxophone	.	191.628	A:min/4
.	.	.	.	2Am	.	saxophone	.	192.556	A:min
=106	=106	=106	=106	=106	=106	=106	=106	=106	=106
1r	.	1r	.	2GM	.	saxophone	.	193.484	G:maj/b7
.	.	.	.	2Am	.	saxophone	.	194.412	A:min
=107	=107	=107	=107	=107	=107	=107	=107	=107	=107
1r	.	1r	.	2Am	newline	saxophone	.	195.339	A:min/4
.	.	.	.	2Am	.	saxophone	.	195.692	A:min
=108	=108	=108	=108	=108	=108	=108	=108	=108	=108
1r	.	1r	.	2GM	.	saxophone	.	196.044	G:maj/b7
.	.	.	.	2Am	.	saxophone	.	196.397	A:min
=109	=109	=109	=109	=109	=109	=109	=109	=109	=109
1r	.	1r	.	2Am	.	saxophone	.	196.749	A:min/4
.	.	.	.	2Am	.	saxophone	.	197.102	A:min
=110	=110	=110	=110	=110	=110	=110	=110	=110	=110
1r	.	1r	.	2GM	.	saxophone	.	197.454	G:maj/b7
.	.	.	.	2Am	.	saxophone	.	197.807	A:min
r;	.	r;	.	1r;	.	r	.	198.159	N.C.
r;	.	r;	.	1r;	.	r	.	201.848	N.C.
*-	*-	*-	*-	*-	*-	*-	*-	*-	*-
!!!BillboardChartDate: 1981/12/19
!!!BillboardPeak: 16
!!!BillboardWeeksOnChart: 24
!!!COC: Rick James
!!!EMD: Original mcgill transcription had change to 5/4 before chorus, but I think it's all just slightly rubato 4/4. -Nat
!!!EMD: These section names don't make sense. The "bridge" is more of a prechorus. The "interlude" is the chorus! -Nat
!!!ENC: Nathaniel Condit-Schultz
!!!EST: Awating manual error checking and editing.
!!!OTL: Super Freak (Part I)
!!!RDF**chordsym: original McGill chord annotation + (implied pitch class set, with bass pitch in first position)
!!!RDF**harmony: **recip + pitch class of root + harmonic quality
!!!RDF**leadinstrument: original McGill primary instrumentation annotation
!!!RDF**phrase: newline = linebreak in original McGill transcription
!!!RDF**timestamp: McGill audio timestamp in seconds
!!!RDT: 2017/01/12/
!!!SampleActualRank: 72
!!!SampleID#: 0812
!!!SampleTargetRank: 74
